F[BALLADE
CUT[Graf und Nonne (Die Nonne)
    Jungfraeulein bist du's zaertlich,]
CNR[bist du's ein wenig reich?]
REG[Osteuropa, UdSSR, Krim, Friedental]
SRC[8, S. 69
    1927 aufgezeichnet]
KEY[Q0155S 16  C 6/8 9/8]
MEL[-5_  1__3_4_3_1_  2__-7_-5__
    -5_  2__5_5_4_2_  3___0_
    12  3__6_5__3_4_2_
    -71  2__2_4__2_3_1_
    -5_  5__3_2__3_  1__.0__ //] >>
FCT[Ballade, Standesunterschied, vergebliche Werbung, Liebe, Klage]
CMT[Pause am Ende der ersten Zeile weggelassen.]
